svgs/cx_file_explorer.svg

<svg xmlns="http://www.w3.org/2000/svg" viewBox="0 0 192 192"><path d="M175.5 149.38a8.947 8.947 0 0 1-2.612 6.302 8.851 8.851 0 0 1-6.278 2.6H25.361a8.83 8.83 0 0 1-4.434-1.201 8.892 8.892 0 0 1-3.244-3.269 8.954 8.954 0 0 1-1.183-4.461V42.62a8.958 8.958 0 0 1 1.197-4.457 8.902 8.902 0 0 1 3.255-3.259 8.837 8.837 0 0 1 4.438-1.186v.008h40.367c9.202 0 25.38 16.927 33.382 17.367h68.934a7.41 7.41 0 0 1 5.252 2.187 7.488 7.488 0 0 1 2.175 5.279Zm-16.308-47.423-29.975 39.93m29.975 0-29.975-39.93" fill="none" stroke="#000" stroke-width="12" stroke-linecap="round" stroke-linejoin="round"/><path d="M116.887 134.298a15.025 15.025 0 0 1-5.491 5.556 14.928 14.928 0 0 1-15.017.014 15.021 15.021 0 0 1-5.486-5.515 15.128 15.128 0 0 1-2.008-7.534v-9.793c0-2.644.693-5.243 2.008-7.533a15.031 15.031 0 0 1 5.486-5.516 14.93 14.93 0 0 1 15.005.006 15.031 15.031 0 0 1 5.49 5.537" fill="none" stroke="#000" stroke-width="12" stroke-linecap="round" stroke-linejoin="round"/></svg>

<svg
    xmlns="http://www.w3.org/2000/svg"
    viewBox="0 0 192 192"
    id="vector">
    <path
        id="path"
        d="M 175.5 149.38 C 175.495 151.745 174.555 154.013 172.888 155.682 C 171.222 157.351 168.962 158.286 166.61 158.282 L 25.361 158.282 C 23.804 158.28 22.274 157.866 20.927 157.081 C 19.579 156.297 18.46 155.169 17.683 153.812 C 16.906 152.455 16.498 150.917 16.5 149.351 L 16.5 42.62 C 16.503 41.055 16.916 39.517 17.697 38.163 C 18.479 36.808 19.601 35.685 20.952 34.904 C 22.302 34.124 23.833 33.715 25.39 33.718 L 25.39 33.726 L 65.757 33.726 C 74.959 33.726 91.137 50.653 99.139 51.093 L 168.073 51.093 C 170.042 51.093 171.932 51.88 173.325 53.28 C 174.717 54.679 175.5 56.58 175.5 58.559 Z M 159.192 101.957 L 129.217 141.887 M 159.192 141.887 L 129.217 101.957"
        fill="none"
        stroke="#000000"
        stroke-width="12"
        stroke-linecap="round"
        stroke-linejoin="round"/>
    <path
        id="path_1"
        d="M 116.887 134.298 C 115.576 136.604 113.682 138.521 111.396 139.854 C 109.111 141.186 106.515 141.888 103.873 141.887 C 101.242 141.887 98.657 141.19 96.379 139.868 C 94.1 138.546 92.208 136.643 90.893 134.353 C 89.577 132.062 88.885 129.463 88.885 126.819 L 88.885 117.026 C 88.885 114.382 89.578 111.783 90.893 109.493 C 92.208 107.202 94.101 105.3 96.379 103.977 C 98.657 102.655 101.242 101.959 103.873 101.959 C 106.51 101.957 109.101 102.655 111.384 103.983 C 113.666 105.31 115.56 107.221 116.874 109.52"
        fill="none"
        stroke="#000000"
        stroke-width="12"
        stroke-linecap="round"
        stroke-linejoin="round"/>
</svg>
